public/cloud-icons/azure/data/azure-synapse-analytics-serverless-sql-pool.svg

<svg xmlns="http://www.w3.org/2000/svg" xml:space="preserve" width="53.859" height="56.698" style="font-size:12px;overflow:visible;color-interpolation-filters:sRGB;fill-rule:evenodd;stroke-linecap:square;stroke-miterlimit:3" viewBox="0 0 53.859 56.698"><defs><linearGradient id="a" x1="0" x2="24.321" y1="138.235" y2="138.235" gradientTransform="scale(1.68661 .5929)" gradientUnits="userSpaceOnUse"><stop offset=".2" stop-color="#005ba1"/><stop offset="1" stop-color="#0078d4"/></linearGradient><linearGradient id="b" x1="-1.245" x2="21.455" y1="88.608" y2="88.608" gradientTransform="scale(1.13775 .87893)" gradientUnits="userSpaceOnUse"><stop offset="0" stop-color="#198ab3"/><stop offset=".17" stop-color="#32bedd"/><stop offset=".5" stop-color="#50e6ff"/><stop offset=".5" stop-color="#4fe4fd"/><stop offset=".5" stop-color="#4bddf8"/><stop offset=".5" stop-color="#44d2ee"/><stop offset=".5" stop-color="#3ac1e0"/><stop offset=".5" stop-color="#2dabce"/><stop offset=".5" stop-color="#1d90b8"/><stop offset=".5" stop-color="#198ab3"/><stop offset=".66" stop-color="#32bedd"/><stop offset=".975" stop-color="#50e6ff"/></linearGradient></defs><g transform="translate(-5.386 -5.666)"><title>Page-1</title><g transform="translate(5.386 -34.016)"><title>Azure Synapse Analytics Serverless SQL Pool.20863</title><title>Page-1</title><title>Sheet.20865</title><g transform="translate(0 -8.472)"><title>Sheet.20866</title><title>Sheet.20867</title><title>Sheet.20868</title><path d="M20.51 48.16 0 60.19v24.02l20.51 12.17 20.51-12.03v-24.1Zm16.72 33.67-16.72 9.91-16.72-9.8V62.58l16.72-9.92 16.72 9.94z" style="fill:#0078d4;stroke:none;stroke-width:.75;stroke-linecap:butt"/><g transform="translate(0 -33.807)"><title>Sheet.20869</title><title>Sheet.20870</title><path d="M20.51 81.96 0 93.99l3.79 2.39 16.72-9.92 16.72 9.92 3.79-2.39z" style="fill:url(#a);stroke:none;stroke-width:.75;stroke-linecap:butt"/></g><g transform="translate(6.435 -6.025)"><title>Sheet.20871</title><title>Sheet.20872</title><path d="M23.85 82.24a1.907 1.956-180 0 0-.85-.76 15.245 15.63-180 0 0-11.7-8.97l16.93-10.02-3.94-2.31L5.02 71.6A1.96 2.01-180 0 0 6 75.35a1.787 1.832-180 0 0 .23-.06l.33 1.4a11.284 11.57 0 0 1 12.65 5.99L0 94.06l3.92 2.32 19.21-11.39a1.905 1.953-180 0 0 .63-.63l.2-.04c-.02-.08-.05-.16-.07-.23a1.92 1.969-180 0 0-.04-1.85" style="fill:#50e6ff;stroke:none;stroke-width:.75;stroke-linecap:butt"/></g><g transform="translate(9.018 -15.616)"><title>Sheet.20873</title><title>Sheet.20874</title><path d="M19.57 87.92a4.833 4.956-180 1 0 4.84 4.96 4.833 4.956-180 0 0-4.84-4.96M3.41 77.88a4.833 4.956-180 1 0 4.84 4.96 4.833 4.956-180 0 0-4.84-4.96" style="fill:url(#b);stroke:none;stroke-width:.75;stroke-linecap:butt"/></g></g><g transform="translate(35.509)"><title>Sheet.20875</title><title>Sheet.20876</title><title>Sheet.20877</title><path d="M8.13 93.69v.13l.65 1.07c-.26.07-.53.12-.78.13-.26.01-.53.02-.79.02-.43 0-.84-.02-1.26-.05s-.82-.07-1.24-.15c-.25-.05-.54-.1-.87-.18q-.495-.12-1.02-.3c-.36-.12-.7-.26-1.04-.42-.33-.17-.64-.36-.9-.59a2.7 2.7 0 0 1-.64-.74c-.15-.28-.23-.59-.24-.94V79.58c0-.34.08-.65.23-.92.17-.27.37-.52.65-.75.27-.22.57-.41.9-.58s.67-.32 1.03-.44c.35-.11.69-.22 1.02-.29a13 13 0 0 1 2.12-.33c.42-.02.83-.05 1.26-.05.42 0 .85.02 1.26.04.42.03.83.09 1.23.16.26.04.55.1.88.18.33.07.67.18 1.02.29.35.12.7.27 1.03.44q.51.255.9.57c.28.22.48.46.64.74.16.29.24.6.25.94v6.05H13.1v-4.04c-.41.24-.87.44-1.36.61q-.72.24-1.5.42c-.52.11-1.03.19-1.55.23-.51.06-1.01.08-1.48.09-.47 0-.97-.02-1.48-.07-.53-.04-1.04-.11-1.57-.2-.53-.1-1.03-.23-1.5-.41-.49-.17-.94-.4-1.35-.67v10.08c0 .14.05.27.16.41.11.12.22.22.32.3.33.25.72.46 1.18.63.45.16.93.3 1.42.4s.99.17 1.49.22.94.07 1.33.06zm-.92-16.13c-.39 0-.83.03-1.33.07s-1.01.11-1.52.23c-.51.11-.99.26-1.45.42s-.85.39-1.18.65c-.09.07-.18.18-.28.29-.09.11-.13.22-.14.36 0 .13.04.26.14.37.09.11.17.2.28.28.32.27.72.48 1.18.66.46.17.94.32 1.45.42.5.11 1.01.18 1.51.23.5.04.95.05 1.34.05.38 0 .83-.01 1.33-.05.5-.05 1.01-.12 1.51-.23.52-.1 1-.25 1.46-.42.45-.18.85-.39 1.18-.66.1-.08.18-.17.27-.28s.14-.24.14-.37c0-.14-.04-.25-.13-.36s-.18-.22-.28-.29c-.32-.26-.72-.48-1.18-.65-.47-.18-.95-.31-1.46-.42-.5-.1-1.01-.18-1.5-.22s-.94-.06-1.34-.08m8.78 10.09c.35.19.67.43.95.72.29.29.54.6.75.96.22.36.37.74.48 1.13s.17.8.18 1.21c0 .65-.12 1.24-.37 1.82-.25.56-.57 1.05-.99 1.49s-.9.78-1.46 1.02c-.55.24-1.14.37-1.77.38-.62 0-1.21-.13-1.76-.38s-1.04-.59-1.46-1.02a4.3 4.3 0 0 1-.99-1.49c-.24-.57-.36-1.17-.38-1.82 0-.39.06-.79.17-1.18q.165-.585.45-1.11c.19-.35.43-.68.7-.98.29-.3.59-.55.91-.75l.66 1.2c-.26.15-.49.32-.69.53-.2.2-.36.45-.49.71-.14.27-.23.55-.29.84-.07.29-.1.59-.11.88 0 .47.09.91.26 1.32.17.4.4.76.7 1.06.29.31.63.55 1.03.71.39.17.83.26 1.29.27q.69 0 1.29-.27c.39-.16.73-.4 1.04-.71q.45-.45.69-1.05c.16-.41.25-.86.26-1.33 0-.62-.16-1.19-.47-1.7-.32-.51-.72-.93-1.23-1.26zm-2.89 4.7v-5.38h1.32v5.38z" style="fill:#000;stroke:none;stroke-width:.75;stroke-linecap:butt"/></g></g></g></svg>

<?xml version="1.0" encoding="UTF-8" standalone="no"?>
<!-- Generated by Microsoft Visio, SVG Export Azure Synapse Analytics Serverless SQL Pool.svg Page-1 -->

<svg
   xmlns:dc="http://purl.org/dc/elements/1.1/"
   xmlns:cc="http://creativecommons.org/ns#"
   xmlns:rdf="http://www.w3.org/1999/02/22-rdf-syntax-ns#"
   xmlns:svg="http://www.w3.org/2000/svg"
   xmlns="http://www.w3.org/2000/svg"
   xmlns:sodipodi="http://sodipodi.sourceforge.net/DTD/sodipodi-0.dtd"
   xmlns:inkscape="http://www.inkscape.org/namespaces/inkscape"
   width="53.858799"
   height="56.698441"
   viewBox="0 0 53.858801 56.698442"
   xml:space="preserve"
   class="st6"
   version="1.1"
   id="svg94"
   sodipodi:docname="Azure Synapse Analytics Serverless SQL Pool.svg"
   style="font-size:12px;overflow:visible;color-interpolation-filters:sRGB;fill:none;fill-rule:evenodd;stroke-linecap:square;stroke-miterlimit:3"
   inkscape:version="0.92.5 (2060ec1f9f, 2020-04-08)"><metadata
   id="metadata98"><rdf:RDF><cc:Work
       rdf:about=""><dc:format>image/svg+xml</dc:format><dc:type
         rdf:resource="http://purl.org/dc/dcmitype/StillImage" /></cc:Work></rdf:RDF></metadata><sodipodi:namedview
   pagecolor="#ffffff"
   bordercolor="#666666"
   borderopacity="1"
   objecttolerance="10"
   gridtolerance="10"
   guidetolerance="10"
   inkscape:pageopacity="0"
   inkscape:pageshadow="2"
   inkscape:window-width="640"
   inkscape:window-height="480"
   id="namedview96"
   showgrid="false"
   inkscape:zoom="2.4486917"
   inkscape:cx="26.929119"
   inkscape:cy="14.175301"
   inkscape:window-x="0"
   inkscape:window-y="0"
   inkscape:window-maximized="0"
   inkscape:current-layer="svg94" />
	<style
   type="text/css"
   id="style2">
	<![CDATA[
		.st1 {fill:#0078d4;stroke:none;stroke-linecap:butt;stroke-width:0.75}
		.st2 {fill:url(#grad0-12);stroke:none;stroke-linecap:butt;stroke-width:0.75}
		.st3 {fill:#50e6ff;stroke:none;stroke-linecap:butt;stroke-width:0.75}
		.st4 {fill:url(#grad0-20);stroke:none;stroke-linecap:butt;stroke-width:0.75}
		.st5 {fill:#000000;stroke:none;stroke-linecap:butt;stroke-width:0.75}
		.st6 {fill:none;fill-rule:evenodd;font-size:12px;overflow:visible;stroke-linecap:square;stroke-miterlimit:3}
	]]>
	</style>

	<defs
   id="Patterns_And_Gradients">
		<linearGradient
   id="grad0-12"
   x1="0"
   y1="138.23472"
   x2="24.320946"
   y2="138.23472"
   gradientTransform="scale(1.686612,0.59290458)"
   gradientUnits="userSpaceOnUse">
			<stop
   offset="0.2"
   stop-color="#005ba1"
   stop-opacity="1"
   id="stop4" />
			<stop
   offset="1"
   stop-color="#0078d4"
   stop-opacity="1"
   id="stop6" />
		</linearGradient>
		<linearGradient
   id="grad0-20"
   x1="-1.2452644"
   y1="88.607881"
   x2="21.454647"
   y2="88.607881"
   gradientTransform="scale(1.1377489,0.87892854)"
   gradientUnits="userSpaceOnUse">
			<stop
   offset="0"
   stop-color="#198ab3"
   stop-opacity="1"
   id="stop9" />
			<stop
   offset="0.17"
   stop-color="#32bedd"
   stop-opacity="1"
   id="stop11" />
			<stop
   offset="0.5"
   stop-color="#50e6ff"
   stop-opacity="1"
   id="stop13" />
			<stop
   offset="0.5"
   stop-color="#4fe4fd"
   stop-opacity="1"
   id="stop15" />
			<stop
   offset="0.5"
   stop-color="#4bddf8"
   stop-opacity="1"
   id="stop17" />
			<stop
   offset="0.5"
   stop-color="#44d2ee"
   stop-opacity="1"
   id="stop19" />
			<stop
   offset="0.5"
   stop-color="#3ac1e0"
   stop-opacity="1"
   id="stop21" />
			<stop
   offset="0.5"
   stop-color="#2dabce"
   stop-opacity="1"
   id="stop23" />
			<stop
   offset="0.5"
   stop-color="#1d90b8"
   stop-opacity="1"
   id="stop25" />
			<stop
   offset="0.5"
   stop-color="#198ab3"
   stop-opacity="1"
   id="stop27" />
			<stop
   offset="0.66"
   stop-color="#32bedd"
   stop-opacity="1"
   id="stop29" />
			<stop
   offset="0.975"
   stop-color="#50e6ff"
   stop-opacity="1"
   id="stop31" />
		</linearGradient>
	</defs>
	<g
   id="g92"
   transform="translate(-5.38583,-5.66586)">
		<title
   id="title35">Page-1</title>
		<g
   id="group20863-1"
   transform="translate(5.38583,-34.0157)">
			<title
   id="title37">Azure Synapse Analytics Serverless SQL Pool.20863</title>
			<g
   id="group20864-2">
				<title
   id="title39">Page-1</title>
				<g
   id="group20865-3">
					<title
   id="title41">Sheet.20865</title>
					<g
   id="group20866-4"
   transform="translate(0,-8.47184)">
						<title
   id="title43">Sheet.20866</title>
						<g
   id="group20867-5">
							<title
   id="title45">Sheet.20867</title>
							<g
   id="shape20868-6">
								<title
   id="title47">Sheet.20868</title>
								<path
   d="M 20.51,48.16 0,60.19 V 84.21 L 20.51,96.38 41.02,84.35 V 60.25 Z M 37.23,81.83 20.51,91.74 3.79,81.94 V 62.58 l 16.72,-9.92 16.72,9.94 z"
   class="st1"
   id="path49"
   inkscape:connector-curvature="0"
   style="fill:#0078d4;stroke:none;stroke-width:0.75;stroke-linecap:butt" />
							</g>
						</g>
						<g
   id="group20869-8"
   transform="translate(0,-33.8066)">
							<title
   id="title53">Sheet.20869</title>
							<g
   id="shape20870-9">
								<title
   id="title55">Sheet.20870</title>
								<path
   d="M 20.51,81.96 0,93.99 l 3.79,2.39 16.72,-9.92 16.72,9.92 3.79,-2.39 z"
   class="st2"
   id="path57"
   inkscape:connector-curvature="0"
   style="fill:url(#grad0-12);stroke:none;stroke-width:0.75;stroke-linecap:butt" />
							</g>
						</g>
						<g
   id="group20871-13"
   transform="translate(6.43496,-6.02465)">
							<title
   id="title61">Sheet.20871</title>
							<g
   id="shape20872-14">
								<title
   id="title63">Sheet.20872</title>
								<path
   d="M 23.85,82.24 A 1.90724,1.95554 -180 0 0 23,81.48 15.2448,15.6308 -180 0 0 11.3,72.51 L 28.23,62.49 24.29,60.18 5.02,71.6 A 1.95949,2.00911 -180 0 0 6,75.35 1.78706,1.83231 -180 0 0 6.23,75.29 l 0.33,1.4 a 11.2841,11.5698 0 0 1 12.65,5.99 L 0,94.06 3.92,96.38 23.13,84.99 a 1.90463,1.95286 -180 0 0 0.63,-0.63 l 0.2,-0.04 c -0.02,-0.08 -0.05,-0.16 -0.07,-0.23 a 1.9203,1.96893 -180 0 0 -0.04,-1.85 z"
   class="st3"
   id="path65"
   inkscape:connector-curvature="0"
   style="fill:#50e6ff;stroke:none;stroke-width:0.75;stroke-linecap:butt" />
							</g>
						</g>
						<g
   id="group20873-16"
   transform="translate(9.01763,-15.6162)">
							<title
   id="title69">Sheet.20873</title>
							<g
   id="shape20874-17">
								<title
   id="title71">Sheet.20874</title>
								<path
   d="m 19.57,87.92 a 4.8334,4.9558 -180 1 0 4.84,4.96 4.8334,4.9558 -180 0 0 -4.84,-4.96 z M 3.41,77.88 a 4.8334,4.9558 -180 1 0 4.84,4.96 4.8334,4.9558 -180 0 0 -4.84,-4.96 z"
   class="st4"
   id="path73"
   inkscape:connector-curvature="0"
   style="fill:url(#grad0-20);stroke:none;stroke-width:0.75;stroke-linecap:butt" />
							</g>
						</g>
					</g>
					<g
   id="group20875-21"
   transform="translate(35.5088)">
						<title
   id="title78">Sheet.20875</title>
						<g
   id="group20876-22">
							<title
   id="title80">Sheet.20876</title>
							<g
   id="shape20877-23">
								<title
   id="title82">Sheet.20877</title>
								<path
   d="m 8.13,93.69 v 0.13 l 0.65,1.07 C 8.52,94.96 8.25,95.01 8,95.02 7.74,95.03 7.47,95.04 7.21,95.04 6.78,95.04 6.37,95.02 5.95,94.99 5.53,94.96 5.13,94.92 4.71,94.84 4.46,94.79 4.17,94.74 3.84,94.66 3.51,94.58 3.17,94.48 2.82,94.36 2.46,94.24 2.12,94.1 1.78,93.94 1.45,93.77 1.14,93.58 0.88,93.35 0.61,93.14 0.41,92.89 0.24,92.61 0.09,92.33 0.01,92.02 0,91.67 V 79.58 C 0,79.24 0.08,78.93 0.23,78.66 0.4,78.39 0.6,78.14 0.88,77.91 1.15,77.69 1.45,77.5 1.78,77.33 2.11,77.16 2.45,77.01 2.81,76.89 3.16,76.78 3.5,76.67 3.83,76.6 4.16,76.52 4.46,76.46 4.71,76.42 5.13,76.35 5.53,76.3 5.95,76.27 c 0.42,-0.02 0.83,-0.05 1.26,-0.05 0.42,0 0.85,0.02 1.26,0.04 0.42,0.03 0.83,0.09 1.23,0.16 0.26,0.04 0.55,0.1 0.88,0.18 0.33,0.07 0.67,0.18 1.02,0.29 0.35,0.12 0.7,0.27 1.03,0.44 0.34,0.17 0.64,0.36 0.9,0.57 0.28,0.22 0.48,0.46 0.64,0.74 0.16,0.29 0.24,0.6 0.25,0.94 v 6.05 H 13.1 v -4.04 c -0.41,0.24 -0.87,0.44 -1.36,0.61 -0.48,0.16 -0.98,0.3 -1.5,0.42 -0.52,0.11 -1.03,0.19 -1.55,0.23 -0.51,0.06 -1.01,0.08 -1.48,0.09 -0.47,0 -0.97,-0.02 -1.48,-0.07 C 5.2,82.83 4.69,82.76 4.16,82.67 3.63,82.57 3.13,82.44 2.66,82.26 2.17,82.09 1.72,81.86 1.31,81.59 v 10.08 c 0,0.14 0.05,0.27 0.16,0.41 0.11,0.12 0.22,0.22 0.32,0.3 0.33,0.25 0.72,0.46 1.18,0.63 0.45,0.16 0.93,0.3 1.42,0.4 0.49,0.1 0.99,0.17 1.49,0.22 0.5,0.05 0.94,0.07 1.33,0.06 z M 7.21,77.56 c -0.39,0 -0.83,0.03 -1.33,0.07 -0.5,0.04 -1.01,0.11 -1.52,0.23 -0.51,0.11 -0.99,0.26 -1.45,0.42 -0.46,0.16 -0.85,0.39 -1.18,0.65 -0.09,0.07 -0.18,0.18 -0.28,0.29 -0.09,0.11 -0.13,0.22 -0.14,0.36 0,0.13 0.04,0.26 0.14,0.37 0.09,0.11 0.17,0.2 0.28,0.28 0.32,0.27 0.72,0.48 1.18,0.66 0.46,0.17 0.94,0.32 1.45,0.42 0.5,0.11 1.01,0.18 1.51,0.23 0.5,0.04 0.95,0.05 1.34,0.05 0.38,0 0.83,-0.01 1.33,-0.05 0.5,-0.05 1.01,-0.12 1.51,-0.23 0.52,-0.1 1,-0.25 1.46,-0.42 0.45,-0.18 0.85,-0.39 1.18,-0.66 0.1,-0.08 0.18,-0.17 0.27,-0.28 0.09,-0.11 0.14,-0.24 0.14,-0.37 0,-0.14 -0.04,-0.25 -0.13,-0.36 C 12.88,79.11 12.79,79 12.69,78.93 12.37,78.67 11.97,78.45 11.51,78.28 11.04,78.1 10.56,77.97 10.05,77.86 9.55,77.76 9.04,77.68 8.55,77.64 8.06,77.6 7.61,77.58 7.21,77.56 Z m 8.78,10.09 c 0.35,0.19 0.67,0.43 0.95,0.72 0.29,0.29 0.54,0.6 0.75,0.96 0.22,0.36 0.37,0.74 0.48,1.13 0.11,0.39 0.17,0.8 0.18,1.21 0,0.65 -0.12,1.24 -0.37,1.82 -0.25,0.56 -0.57,1.05 -0.99,1.49 -0.42,0.44 -0.9,0.78 -1.46,1.02 -0.55,0.24 -1.14,0.37 -1.77,0.38 C 13.14,96.38 12.55,96.25 12,96 11.45,95.75 10.96,95.41 10.54,94.98 10.11,94.56 9.78,94.06 9.55,93.49 9.31,92.92 9.19,92.32 9.17,91.67 c 0,-0.39 0.06,-0.79 0.17,-1.18 0.11,-0.39 0.26,-0.76 0.45,-1.11 0.19,-0.35 0.43,-0.68 0.7,-0.98 0.29,-0.3 0.59,-0.55 0.91,-0.75 l 0.66,1.2 c -0.26,0.15 -0.49,0.32 -0.69,0.53 -0.2,0.2 -0.36,0.45 -0.49,0.71 -0.14,0.27 -0.23,0.55 -0.29,0.84 -0.07,0.29 -0.1,0.59 -0.11,0.88 0,0.47 0.09,0.91 0.26,1.32 0.17,0.4 0.4,0.76 0.7,1.06 0.29,0.31 0.63,0.55 1.03,0.71 0.39,0.17 0.83,0.26 1.29,0.27 0.46,0 0.89,-0.09 1.29,-0.27 0.39,-0.16 0.73,-0.4 1.04,-0.71 0.3,-0.3 0.53,-0.65 0.69,-1.05 0.16,-0.41 0.25,-0.86 0.26,-1.33 0,-0.62 -0.16,-1.19 -0.47,-1.7 -0.32,-0.51 -0.72,-0.93 -1.23,-1.26 z m -2.89,4.7 v -5.38 h 1.32 v 5.38 z"
   class="st5"
   id="path84"
   inkscape:connector-curvature="0"
   style="fill:#000000;stroke:none;stroke-width:0.75;stroke-linecap:butt" />
							</g>
						</g>
					</g>
				</g>
			</g>
		</g>
	</g>
</svg>
